!!!COM:	Compere, Loyset
!!!CDT:	~1445///-1518/08/16
!!!OTL:	Puis que si bien m'est advenu
!!!AGN:	Song; Chanson
!!!SCT:	Com3032
!!!SCA:	Com3032
!!!voices:	3
**kern	**kern	**kern
*staff3	*staff2	*staff1
*Ivox	*Ivox	*Ivox
*I"Bassus	*I"Tenor	*I"Superius
*I'B	*I'T	*I'S
*clefF4	*clefGv2	*clefG2
*k[b-]	*k[b-]	*k[b-]
*M2/1	*M2/1	*M2/1
*met(C|)	*met(C|)	*met(C|)
=1-	=1-	=1-
0C	0r	0r
=2	=2	=2
1D	0r	0r
1E	.	.
=3	=3	=3
1.F	0F	0r
4E-i	.	.
4D	.	.
=4	=4	=4
1E-i	1G	0r
1C	1A	.
=5	=5	=5
0BB-	1.B-	0f
.	2A	.
=6	=6	=6
1GG	2B-	1g
.	2c	.
1FF	1A	1a
=7	=7	=7
0GG	0G	1.b-
.	.	4a
.	.	4g
=8	=8	=8
1D	1F	1a
1E	1G	[1g
=9	=9	=9
1.C	1.c	1g]
.	.	[1cc
4D	2B-	.
4E	.	.
=10	=10	=10
2F	2A	2cc]
2G	2G	2b-
2F	2A	2a
2E	2B-	2g
=11	=11	=11
1F	1A	1a
1E	1G	1b-
=12	=12	=12
1F	1F	1a
1C	1E	[1g
=13	=13	=13
0D	0F	1g]
.	.	[1f
=14	=14	=14
0C	0G	2f]
.	.	4e
.	.	4d
.	.	1e
=15	=15	=15
2.FF	0F	0f
4GG	.	.
2AA	.	.
[2BB-	.	.
=16	=16	=16
2BB-]	0r	0r
2AA	.	.
2BB-	.	.
2C	.	.
=17	=17	=17
1D	0F	0a
2D	.	.
[2D	.	.
=18	=18	=18
2D]	1F	1a
4C	.	.
4BB-	.	.
1AA	1F	1a
=19	=19	=19
1GG	1.G	1.b-
1E-i	.	.
.	2A	4a
.	.	4g
=20	=20	=20
1D	0B-	1f
1BB-	.	[1b-
=21	=21	=21
0E-i	0G	1b-]
.	.	[1g
=22	=22	=22
0C	1.c	1g]
.	.	[1cc
.	2B-	.
=23	=23	=23
1.F	2A	2cc]
.	2G	2b-
.	2F	2a
2E	4G	2g
.	4A	.
=24	=24	=24
2D	1.B-	1f
2C	.	.
1BB-	.	[1b-
.	2A	.
=25	=25	=25
1.E-i	2G	2b-]
.	2F	2a
.	2E-i	2g
2D	2F	2f
=26	=26	=26
2C	1.G	2e-i
4BB-	.	2f
4AA	.	.
1GG	.	[1g
.	2F	.
=27	=27	=27
1.C	2E	2g]
.	2D	2f
.	2C	2e
2BB-	4D	2d
.	4E	.
=28	=28	=28
2AA	1F	2c
2GG	.	4d
.	.	4e
2FF	1D	1f
[2BB-	.	.
=29	=29	=29
2BB-]	2.G	2e
2.GG	.	1g
.	4F	.
.	2E	.
4AA	.	.
2BB-	2D	2f
=30	=30	=30
2C	2C	2e
2GG	2BB-	2.d
1AA	1C	.
.	.	4c
.	.	[2c
=31	=31	=31
1GG	1D	2c]
.	.	2Bni
1AA	[1C	1c
=32	=32	=32
1.FF	2C]	1r
.	4D	.
.	4E	.
.	1F	2c
[2BB-	.	4d
.	.	4e
=33	=33	=33
2BB-]	2D	1f
2GG	4E	.
.	4F	.
4AA	1G	2d
4BB-	.	.
[2C	.	4e
.	.	4f
=34	=34	=34
2C]	2E	1g
2AA	4F	.
.	4G	.
4BB-	1A	2e
4C	.	.
[2D	.	4f
.	.	4g
=35	=35	=35
2D]	2F	1a
2BB-	4G	.
.	4A	.
4C	1B-	2f
4D	.	.
[2E-i	.	4g
.	.	4a
=36	=36	=36
2E-]	2G	1b-
2C	4A	.
.	4B-	.
4D	1c	2g
4Eni	.	.
[2F	.	4a
.	.	4b-
=37	=37	=37
2F]	2A	1cc
2D	4B-	.
.	4c	.
4E	1d	2a
4F	.	.
2G	.	2b-
=38	=38	=38
2A	2c	2cc
2G	2B-	2.dd
1C	1c	.
.	.	4cc
.	.	[2cc
=39	=39	=39
1G	1d	2cc]
.	.	2bni
[1C	1r	[1cc
=40	=40	=40
2C]	1.c	1cc]
2BB-	.	.
2AA	.	1r
2GG	2B-	.
=41	=41	=41
1FF	1A	1.cc
1GG	1G	.
.	.	2b-
=42	=42	=42
1AA	1c	1a
2BB-	1B-	1g
4AA	.	.
4GG	.	.
=43	=43	=43
1FF	1A	1cc
1GG	1G	2b-
.	.	2g
=44	=44	=44
2r	1c	1a
2FF	.	.
1GG	1B-	1g
=45	=45	=45
1AA	1.A	1.cc
1C	.	.
.	4B-	4b-
.	4c	4a
=46	=46	=46
0BB-	0d	2b-
.	.	2a
.	.	2g
.	.	2f
=47	=47	=47
[0C	0c	0e
=48	=48	=48
0C]	1r	1r
.	[1c	1e
=49	=49	=49
1r	1c]	1e
1C	1c	1e
=50	=50	=50
1BB-	1d	1d
1C	[1c	1e
=51	=51	=51
0D	2c]	1.f
.	4Bni	.
.	4A	.
.	1Bni	.
.	.	4e
.	.	4d
=52	=52	=52
0C	1c	1e
.	1C	2r
.	.	2e
=53	=53	=53
1BB-	1D	2d
.	.	2f
2C	1E	2e
2E-i	.	2g
=54	=54	=54
2D	1F	2f
2F	.	2a
2E	1G	2g
2G	.	2b-
=55	=55	=55
2F	1A	2a
2A	.	1cc
2B-	1G	.
2G	.	2b-
=56	=56	=56
1F	1.c	2a
.	.	4g
.	.	4f
[1E	.	1g
.	2B-	.
=57	=57	=57
2E]	2A	1f
2F	4G	.
.	4F	.
2D	1G	[1b-
4E-i	.	.
4C	.	.
=58	=58	=58
2BB-	1F	2b-]
4C	.	2a
4D	.	.
2E-i	[1B-	2g
2F	.	2f
=59	=59	=59
1C	2B-]	1e
.	2A	.
1D	2G	1f
.	2F	.
=60	=60	=60
1C	1E	1g
1FF	1F	[1f
=61	=61	=61
1C	0G	1f]
1C	.	1e
=62	=62	=62
0FFl	0Fl	0fl
==	==	==
*-	*-	*-
!!!RDF**kern: l=long note in original notation
!!!RDF**kern: i=editorial accidental
!!!ENC:	Megan K. Eagen 2013/12/01
!!!END:	2013/12/01/
!!!EED:	Jesse Rodin
!!!EEV:	2014/02/23/
!!!ONB:	Translated from MusicXML and edited on 2014/02/23/ by Craig Sapp
!!muse2ps: C^@{COM}^i2I150v95,95,150Q16
